X: 1752
T: Apples In Winter
R: jig
M: 6/8
K: Bminor
fBB ~a3|fBc cBc|~A3 cAc|efg ~a3|
fBB ~a3|fBc cBc|Ace aga|1 fec Bce:|2 fec B2e||
fbb baf|b2b baf|~a3 aec|Ace aga|
fbb fbb|eaa eaa|fec ~a3|fec B2A:|

